X:471
T:
R:vals
S:Efter »Florsen» i Burs.
O:Gotland, Burs
M:3/4
L:1/8
K:Bb
(Bc)|d2 d2 e2|f4 ba|(ga)(gf)(ec)|(de)(dc)(Bc)|d2 d2 e2|f4 ba|(ga)(gf)(ec)|B4:: b2|:a2 aaaa|
b2 bbbb|b2 aaaa|b4 b2:|d2 d2 e2|f4 ba|(ga)(gf)(ec)|B4|:fe|(ed)(de) fd|(ed)(de) fd|(BA)(Bc)(dB)|F4 E2|
(DE)(FG) (Ac)|(BA)(Bd)(fA)|(BA)(Bd)(cA)|B4::FF|F2 d2 B2|B2 A2 G2|G2 e2 A2|c2 B2 A2|G2 gggg|g2 f2 d2|
(ef)(ec) (Ac)|B4:|

